X: 14614
T: Gan Ainm
R: reel
M: 4/4
K: Amixolydian
|:GB g2 fgaf|[M:6/8]g2 BcdB|[M:4/4]GB g2 fgaf|gedB AAAB:|
|:GB g2 dBBg|dBgd B2 AB|GB g2 dBBa|gedB AAAB:|

